X: 9951
T: Devil Among The Tailors, The
R: jig
M: 6/8
K: Amajor
AcA cAc|ece aea|faf dfd|eae cec|
dfd BdB|cec AcA|BdB GBG|A2A A3||
efe efe|ded ded|cdc cdc|BcB BcB|
efe efe|ded ded|cdc cdc|B6|
AcA cAc|ece aea|faf dfd|eae cec|
dfd BcB|cec Aca|BdB GBG|A3A3||

